X: 1
T: The Stewarts' Rant
Z: John Chambers <jc@trillian.mit.edu>
N: Skye p.3
N: Paddledoo
N: Pinewoods Collection
M: C|
L: 1/8
K: A
e [| "A"c{d}e f{g}a e2 ce | "Bm"dBfB "E7"bBdB | "A"c{d}e f{g}a e2 ce | "Bm"dB"E7"ge "A"a2 Ae ||
  || "A"c{d}e f{g}a e2 ce | "Bm"dBfB "E7"bBdB | "A"cefa efce | "Bm"de"E7"fg "A"a2 A |]
e [| "A"cA ~A2 cAcA | "E7"BE ~E2 BEBd | "A"cA ~A2 cAcA | "E7"BE ~E2 "A"e2 Ae ||
  || "A"cAeA fAeA | "E7"GEBE GABd | "A"cAeA ae"(E)"be | "A"[c'a][ae][d'b][c'a] "E7"[b2g] "A"a |]
